public/images/sidebar/apps.svg

<svg width="16" height="16" viewBox="0 0 16 16" fill="none" xmlns="http://www.w3.org/2000/svg">
    <path fill-rule="evenodd" clip-rule="evenodd" d="M6.00001 1.33334H2.66668C1.9303 1.33334 1.33334 1.93029 1.33334 2.66667V6C1.33334 6.73638 1.9303 7.33334 2.66668 7.33334H6.00001C6.73639 7.33334 7.33334 6.73638 7.33334 6V2.66667C7.33334 1.93029 6.73639 1.33334 6.00001 1.33334ZM2.66668 6V2.66667H6.00001V6H2.66668Z" fill="#162D45"/>
    <path fill-rule="evenodd" clip-rule="evenodd" d="M13.3334 8.66667H10C9.26364 8.66667 8.66669 9.26363 8.66669 10V13.3333C8.66669 14.0697 9.26364 14.6667 10 14.6667H13.3334C14.0697 14.6667 14.6667 14.0697 14.6667 13.3333V10C14.6667 9.26363 14.0697 8.66667 13.3334 8.66667ZM10 13.3333V10H13.3334V13.3333H10Z" fill="#162D45"/>
    <path fill-rule="evenodd" clip-rule="evenodd" d="M14.6667 4.33334C14.6667 5.99019 13.3235 7.33334 11.6667 7.33334C10.0098 7.33334 8.66669 5.99019 8.66669 4.33334C8.66669 2.67648 10.0098 1.33334 11.6667 1.33334C13.3235 1.33334 14.6667 2.67648 14.6667 4.33334ZM10 4.33334C10 5.25381 10.7462 6 11.6667 6C12.5872 6 13.3334 5.25381 13.3334 4.33334C13.3334 3.41286 12.5872 2.66667 11.6667 2.66667C10.7462 2.66667 10 3.41286 10 4.33334Z" fill="#162D45"/>
    <path fill-rule="evenodd" clip-rule="evenodd" d="M4.33422 12.5727L2.42428 14.4826C2.17628 14.7306 1.77095 14.7306 1.52228 14.4826L1.51962 14.4793C1.27162 14.2313 1.27162 13.8253 1.51962 13.5766L3.42895 11.6673L1.51988 9.75793C1.27188 9.50993 1.27188 9.10393 1.51988 8.85593L1.52255 8.8526C1.77122 8.6046 2.17655 8.6046 2.42455 8.8526L4.33422 10.762L6.24362 8.8526C6.49162 8.6046 6.89762 8.6046 7.14562 8.8526L7.14895 8.85593C7.39695 9.10393 7.39695 9.50993 7.14895 9.75793L5.23962 11.6673L7.14922 13.5766C7.39722 13.8253 7.39722 14.2313 7.14922 14.4793L7.14589 14.4826C6.89789 14.7306 6.49189 14.7306 6.24389 14.4826L4.33422 12.5727Z" fill="#162D45"/>
</svg>

<svg width="16" height="16" fill="none" xmlns="http://www.w3.org/2000/svg"><path fill-rule="evenodd" clip-rule="evenodd" d="M6 1.333H2.667c-.737 0-1.334.597-1.334 1.334V6c0 .736.597 1.333 1.334 1.333H6c.736 0 1.333-.597 1.333-1.333V2.667c0-.737-.597-1.334-1.333-1.334zM2.667 6V2.667H6V6H2.667zM13.333 8.667H10c-.736 0-1.333.597-1.333 1.333v3.333c0 .737.597 1.334 1.333 1.334h3.333c.737 0 1.334-.597 1.334-1.334V10c0-.736-.597-1.333-1.334-1.333zM10 13.333V10h3.333v3.333H10zM14.667 4.333a3 3 0 11-6 0 3 3 0 016 0zm-4.667 0a1.667 1.667 0 103.333 0 1.667 1.667 0 00-3.333 0zM4.334 12.573l-1.91 1.91a.64.64 0 01-.902 0l-.002-.004a.64.64 0 010-.902l1.909-1.91-1.91-1.91a.64.64 0 010-.901l.004-.003a.64.64 0 01.902 0l1.91 1.909 1.909-1.91a.64.64 0 01.902 0l.003.004a.64.64 0 010 .902l-1.91 1.91 1.91 1.909a.64.64 0 010 .902l-.003.004a.64.64 0 01-.902 0l-1.91-1.91z" fill="#162D45"/></svg>
